Papirus/64x64/apps/multiwinia.svg

<svg width="64" height="64" version="1.1" xmlns="http://www.w3.org/2000/svg">
 <g>
  <path d="m28 5a7.0007 7.0007 0 0 0-7 7h-7a7.0007 7.0007 0 0 0-7 7v7a7.0007 7.0007 0 0 0 7 7h0.950195a7.0007 7.0007 0 0 0-0.950195 3.5v17.5a7.0007 7.0007 0 0 0 7 7h7a7.0007 7.0007 0 0 0 3.5-0.943359 7.0007 7.0007 0 0 0 3.5 0.943359h7a7.0007 7.0007 0 0 0 7-7v-17.5a7.0007 7.0007 0 0 0-0.943359-3.5h0.943359a7.0007 7.0007 0 0 0 7-7v-7a7.0007 7.0007 0 0 0-7-7h-7a7.0007 7.0007 0 0 0-7-7z" style="opacity:.2"/>
  <path d="m28 4a7.0007 7.0007 0 0 0-7 7h-7a7.0007 7.0007 0 0 0-7 7v7a7.0007 7.0007 0 0 0 7 7h0.950195a7.0007 7.0007 0 0 0-0.950195 3.5v17.5a7.0007 7.0007 0 0 0 7 7h7a7.0007 7.0007 0 0 0 3.5-0.943359 7.0007 7.0007 0 0 0 3.5 0.943359h7a7.0007 7.0007 0 0 0 7-7v-17.5a7.0007 7.0007 0 0 0-0.943359-3.5h0.943359a7.0007 7.0007 0 0 0 7-7v-7a7.0007 7.0007 0 0 0-7-7h-7a7.0007 7.0007 0 0 0-7-7z" style="fill:#617573"/>
  <path d="m28 12v7h-14v7h14v11h-7v17h7v-11h7v11h7v-17h-7v-11h14v-7h-14v-7z" style="opacity:.2"/>
  <path d="m28 11v7h-14v7h14v11h-7v17h7v-11h7v11h7v-17h-7v-11h14v-7h-14v-7z" style="fill:#e81a2b"/>
  <path d="m28 4a7.0007 7.0007 0 0 0-7 7h-7a7.0007 7.0007 0 0 0-7 7v1a7.0007 7.0007 0 0 1 7-7h7a7.0007 7.0007 0 0 1 7-7h7a7.0007 7.0007 0 0 1 7 7h7a7.0007 7.0007 0 0 1 7 7v-1a7.0007 7.0007 0 0 0-7-7h-7a7.0007 7.0007 0 0 0-7-7zm-13.521484 29a7.0007 7.0007 0 0 0-0.478516 2.5v1a7.0007 7.0007 0 0 1 0.949219-3.5zm33.578125 0a7.0007 7.0007 0 0 1 0.943359 3.5v-1a7.0007 7.0007 0 0 0-0.474609-2.5z" style="fill:#ffffff;opacity:.2"/>
  <path d="m28 11v1h7v-1zm-14 7v1h14v-1zm21 0v1h14v-1zm-14 18v1h7v-1zm14 0v1h7v-1z" style="fill:#ffffff;opacity:.2"/>
 </g>
</svg>

<svg xmlns="http://www.w3.org/2000/svg" width="64" height="64" version="1.1">
 <path style="opacity:0.2" d="m 28,5 a 7.0007,7.0007 0 0 0 -7,7 h -7 a 7.0007,7.0007 0 0 0 -7,7 v 7 a 7.0007,7.0007 0 0 0 7,7 h 0.950195 A 7.0007,7.0007 0 0 0 14,36.5 V 54 a 7.0007,7.0007 0 0 0 7,7 h 7 A 7.0007,7.0007 0 0 0 31.5,60.056641 7.0007,7.0007 0 0 0 35,61 h 7 a 7.0007,7.0007 0 0 0 7,-7 V 36.5 A 7.0007,7.0007 0 0 0 48.056641,33 H 49 a 7.0007,7.0007 0 0 0 7,-7 V 19 A 7.0007,7.0007 0 0 0 49,12 H 42 A 7.0007,7.0007 0 0 0 35,5 Z"/>
 <path style="fill:#556765" d="m 28,4 a 7.0007,7.0007 0 0 0 -7,7 h -7 a 7.0007,7.0007 0 0 0 -7,7 v 7 a 7.0007,7.0007 0 0 0 7,7 h 0.950195 A 7.0007,7.0007 0 0 0 14,35.5 V 53 a 7.0007,7.0007 0 0 0 7,7 h 7 A 7.0007,7.0007 0 0 0 31.5,59.056641 7.0007,7.0007 0 0 0 35,60 h 7 a 7.0007,7.0007 0 0 0 7,-7 V 35.5 A 7.0007,7.0007 0 0 0 48.056641,32 H 49 a 7.0007,7.0007 0 0 0 7,-7 V 18 A 7.0007,7.0007 0 0 0 49,11 H 42 A 7.0007,7.0007 0 0 0 35,4 Z"/>
 <path style="opacity:0.2" d="m 28,12 v 7 H 14 v 7 h 14 v 11 h -7 v 17 h 7 V 43 h 7 v 11 h 7 V 37 H 35 V 26 H 49 V 19 H 35 v -7 z"/>
 <path style="fill:#eb3a49" d="m 28,11 v 7 H 14 v 7 h 14 v 11 h -7 v 17 h 7 V 42 h 7 v 11 h 7 V 36 H 35 V 25 H 49 V 18 H 35 v -7 z"/>
 <path style="opacity:0.1;fill:#ffffff" d="m 28,4 a 7.0007,7.0007 0 0 0 -7,7 h -7 a 7.0007,7.0007 0 0 0 -7,7 v 1 a 7.0007,7.0007 0 0 1 7,-7 h 7 a 7.0007,7.0007 0 0 1 7,-7 h 7 a 7.0007,7.0007 0 0 1 7,7 h 7 a 7.0007,7.0007 0 0 1 7,7 V 18 A 7.0007,7.0007 0 0 0 49,11 H 42 A 7.0007,7.0007 0 0 0 35,4 Z M 14.478516,33 A 7.0007,7.0007 0 0 0 14,35.5 v 1 A 7.0007,7.0007 0 0 1 14.949219,33 Z m 33.578125,0 A 7.0007,7.0007 0 0 1 49,36.5 v -1 A 7.0007,7.0007 0 0 0 48.525391,33 Z"/>
 <path style="fill:#ffffff;opacity:0.2" d="M 28 11 L 28 12 L 35 12 L 35 11 L 28 11 z M 14 18 L 14 19 L 28 19 L 28 18 L 14 18 z M 35 18 L 35 19 L 49 19 L 49 18 L 35 18 z M 21 36 L 21 37 L 28 37 L 28 36 L 21 36 z M 35 36 L 35 37 L 42 37 L 42 36 L 35 36 z"/>
</svg>
